Origami/32x32/apps/green-recorder.svg

<svg width="32" height="32" version="1" xmlns="http://www.w3.org/2000/svg">
 <path transform="matrix(0,-1,-1,0,0,0)" d="m-26.687-23h18.374c0.727402 0 1.313 0.594518 1.313 1.333v12.334c0 0.7384819-0.585598 1.3329999-1.313 1.3329999h-18.374c-0.727402 0-1.313-0.594518-1.313-1.3329999v-12.334c0-0.738482 0.585598-1.333 1.313-1.333z" style="fill:#8e8e8e"/>
 <path transform="matrix(0,-1,-1,0,0,0)" d="m-23.75-27.9996h17.5c0.6925 0 1.25 0.5798 1.25 1.3v22.3996c0 0.7202-0.5575 1.3-1.25 1.3h-17.5c-0.6925 0-1.25-0.5798-1.25-1.3v-22.3996c0-0.7202 0.5575-1.3 1.25-1.3z" style="fill:#4f4f4f"/>
 <rect transform="matrix(0,-1,-1,0,0,0)" x="-23" y="-26" width="16" height="21" rx="0" ry="0" style="fill:#37b368"/>
 <path d="m4.3008 5c-0.7202 0-1.3008 0.5575-1.3008 1.25v1c0-0.6925 0.5806-1.25 1.3008-1.25h22.3976c0.72 0 1.301 0.5575 1.301 1.25v-1c0-0.6925-0.581-1.25-1.301-1.25z" style="fill:#ffffff;opacity:.1"/>
 <path d="m8 26.688v1c0 0.727 0.5953 1.312 1.334 1.312h12.332c0.739 0 1.334-0.585 1.334-1.312v-1c0 0.727-0.595 1.312-1.334 1.312h-12.332c-0.7387 0-1.334-0.585-1.334-1.312z" style="opacity:.2"/>
 <path d="m3 23.75v1c0 0.692 0.5806 1.25 1.3008 1.25h22.3976c0.72 0 1.301-0.558 1.301-1.25v-1c0 0.692-0.581 1.25-1.301 1.25h-22.3976c-0.7204 0-1.301-0.558-1.301-1.25z" style="opacity:.2"/>
 <path d="m9.648 12h7.702c0.65 0 0.65 0.64286 0.65 0.64286v6.71428c0 0.64286-0.65 0.64286-0.65 0.64286h-7.7s-0.65 0-0.65-0.64286v-6.71428s0-0.64286 0.65-0.64286zm12.352 1v6.49998l-4-3.49998z" style="opacity:.2"/>
 <path d="m9.648 11h7.702c0.65 0 0.65 0.64286 0.65 0.64286v6.71428c0 0.64286-0.65 0.64286-0.65 0.64286h-7.7s-0.65 0-0.65-0.64286v-6.71428s0-0.64286 0.65-0.64286zm12.352 1v6.49998l-4-3.49998z" style="fill:#ffffff"/>
</svg>

<svg xmlns="http://www.w3.org/2000/svg" width="32" height="32" version="1">
 <path style="fill:#8e8e8e" d="m -26.687,-23 18.374,0 c 0.727402,0 1.313,0.594518 1.313,1.333 l 0,12.3340001 C -7,-8.594518 -7.585598,-8 -8.313,-8 l -18.374,0 C -27.414402,-8 -28,-8.594518 -28,-9.3329999 L -28,-21.667 c 0,-0.738482 0.585598,-1.333 1.313,-1.333 z" transform="matrix(0,-1,-1,0,0,0)"/>
 <path style="fill:#4f4f4f" d="m -23.75,-27.9996 17.5,0 c 0.6925,0 1.25,0.5798 1.25,1.3 L -5,-4.3 c 0,0.7202 -0.5575,1.3 -1.25,1.3 l -17.5,0 C -24.4425,-3 -25,-3.5798 -25,-4.3 l 0,-22.3996 c 0,-0.7202 0.5575,-1.3 1.25,-1.3 z" transform="matrix(0,-1,-1,0,0,0)"/>
 <rect style="fill:#37b368" width="16" height="21" x="-23" y="-26" rx="0" ry="0" transform="matrix(0,-1,-1,0,0,0)"/>
 <path style="opacity:0.1;fill:#ffffff" d="M 4.3008,5 C 3.5806,5 3,5.5575 3,6.25 l 0,1 C 3,6.5575 3.5806,6 4.3008,6 l 22.3976,0 c 0.72,0 1.301,0.5575 1.301,1.25 l 0,-1 C 27.9994,5.5575 27.4184,5 26.6984,5 Z"/>
 <path style="opacity:0.2" d="m 8,26.688 0,1 C 8,28.415 8.5953,29 9.334,29 l 12.332,0 C 22.405,29 23,28.415 23,27.688 l 0,-1 C 23,27.415 22.405,28 21.666,28 L 9.334,28 C 8.5953,28 8,27.415 8,26.688 Z"/>
 <path style="opacity:0.2" d="m 3,23.75 0,1 C 3,25.442 3.5806,26 4.3008,26 l 22.3976,0 c 0.72,0 1.301,-0.558 1.301,-1.25 l 0,-1 c 0,0.692 -0.581,1.25 -1.301,1.25 L 4.3008,25 c -0.7204,0 -1.301,-0.558 -1.301,-1.25 z"/>
 <path style="opacity:0.2" d="m 9.648,12 7.702,0 C 18,12 18,12.64286 18,12.64286 l 0,6.71428 C 18,20 17.35,20 17.35,20 l -7.7,0 C 9.65,20 9,20 9,19.35714 L 9,12.64286 C 9,12.64286 9,12 9.65,12 Z M 22,13 22,19.49998 18,16 Z"/>
 <path style="fill:#ffffff" d="m 9.648,11 7.702,0 C 18,11 18,11.64286 18,11.64286 l 0,6.71428 C 18,19 17.35,19 17.35,19 l -7.7,0 C 9.65,19 9,19 9,18.35714 L 9,11.64286 C 9,11.64286 9,11 9.65,11 Z M 22,12 22,18.49998 18,15 Z"/>
</svg>
